X:469
T:Loch Earn
R:Reel
C:Nathaniel Gow
B:The Athole Collection
M:C|
L:1/8
K:G
f|g2dB G2BG|E2AG FDDf|g2dB G2BG|EAFD G2G:|
g|efge fgab|afge fddf|efge fgag|fefd g2Bd|efge dBgB|
caBg AGFD|GABG EGce|dBcA G2G||

